X:235
T:Itzbin Reel
C:by John Reischman (key of A)
N:tab by S.M. Block 8/2019
R:bluegrass
L:1/8
Q:1/4=236
M:4/4
K:A
"A"[eB]c2e B4 | AB AF EC FE | "D"DE FD "E"EF GE | "A"A2 [A2A2] [A2A2] AB |: "A"cB cB AB AF | 
EF EC z2 [A2E2C2] | "D"DE FA zF A2 | "E"EF GB z2 AB | "A"ce cB AB AF | EF ED CD EC | 
"D"DE FD "E"EF GB |1 A2 [A2A2] [A2A2] AB :|2 A2 [A2A2] [A4A4] | "F#m"{E}F2 AF B2 {E}F2 | 
"D"AF BA FA3 | "E"GA GF EF GB | "F#m"AE FA F2 FF | {E}F2 AF B2 {E}F2 | "D"AF BA FA3 | 
"E"EF GE FG AF | GA BG AB cA | Bc dB cd ec | de (3fgf e2 ab | "A"c'b c'b ab af | 
ef ec z2 Ac | "D"de fa zf e2 | "E"ef gb z2 ab | "A"c'b c'b ab af | ef ed cd ec | 
"D"de fd "E"ef ge | "A"ae cB A4 | 


